assets/svg/tools/superagi.svg

<svg xmlns="http://www.w3.org/2000/svg" width="24" height="24"><g fill="#000" fill-rule="nonzero"><path d="M12 2C6.48 2 2 6.48 2 12s4.48 10 10 10 10-4.48 10-10S17.52 2 12 2m0 18c-4.41 0-8-3.59-8-8s3.59-8 8-8 8 3.59 8 8-3.59 8-8 8"/><path d="M12 6c-3.31 0-6 2.69-6 6s2.69 6 6 6 6-2.69 6-6-2.69-6-6-6m0 10c-2.21 0-4-1.79-4-4s1.79-4 4-4 4 1.79 4 4-1.79 4-4 4"/><path d="M12 10c-1.1 0-2 .9-2 2s.9 2 2 2 2-.9 2-2-.9-2-2-2"/></g></svg>

<?xml version="1.0" encoding="UTF-8"?>
<svg width="24px" height="24px" viewBox="0 0 24 24" version="1.1" xmlns="http://www.w3.org/2000/svg" xmlns:xlink="http://www.w3.org/1999/xlink">
    <g stroke="none" stroke-width="1" fill="none" fill-rule="evenodd">
        <path d="M12,2 C6.48,2 2,6.48 2,12 C2,17.52 6.48,22 12,22 C17.52,22 22,17.52 22,12 C22,6.48 17.52,2 12,2 Z M12,20 C7.59,20 4,16.41 4,12 C4,7.59 7.59,4 12,4 C16.41,4 20,7.59 20,12 C20,16.41 16.41,20 12,20 Z" fill="#000000" fill-rule="nonzero"></path>
        <path d="M12,6 C8.69,6 6,8.69 6,12 C6,15.31 8.69,18 12,18 C15.31,18 18,15.31 18,12 C18,8.69 15.31,6 12,6 Z M12,16 C9.79,16 8,14.21 8,12 C8,9.79 9.79,8 12,8 C14.21,8 16,9.79 16,12 C16,14.21 14.21,16 12,16 Z" fill="#000000" fill-rule="nonzero"></path>
        <path d="M12,10 C10.9,10 10,10.9 10,12 C10,13.1 10.9,14 12,14 C13.1,14 14,13.1 14,12 C14,10.9 13.1,10 12,10 Z" fill="#000000" fill-rule="nonzero"></path>
    </g>
</svg>
